X:1
T:Ni fedir leat hurry ghra
S:Noel <noelbats@onetel.com> tradtunes 2010-11-13
M:6/8
L:1/8
K: D
E |  "G"GFE "D"F2A | "G"BAG "A"A2A |  "G"Bcd "Bm"FED | "Em"EFG "A7"AB :|
c |"F#m"c2c    cBA |    c2c    cBA | "Bm"d2d     dBF |     d2d     dBF |
  |  "G"D2d    dbg |    d2d    dBG | "A7"efd     cdB |     ABG     FG |]
